X:118
T:Waltz. CJF.118
R:Waltz
S:C.J.Fox MS, 1829/33, Beverley,E.Yorks.
B:Kidson Coll.Mitchell Lib.M1805
O:England
A:East Yorkshire
Z:vmp.P J Headford 2000 & 2008
M:3/8
L:1/16
Q:1/8=120
K:G
G3gfe|d2d2d2|B3edc|B2B2B2|” for”g2gfgb|\
a2abc’a|gfedef|g4z2:|!
|:dfafaf|dgbgbg|dac’ac’a|dgbgbg|\
dfafaf|dgbgbg|a2agfa|g4z2:|!
|:d2B2ge|cBAGFG|A2D2D2|d2B2 ge|\
d2d2 BD|c2 (cA)(AF)|G4z2:|

